actions/symbolic/edit-copy-symbolic.svg

<?xml version="1.0" encoding="UTF-8" standalone="no"?>
<svg
   xmlns:dc="http://purl.org/dc/elements/1.1/"
   xmlns:cc="http://creativecommons.org/ns#"
   xmlns:rdf="http://www.w3.org/1999/02/22-rdf-syntax-ns#"
   xmlns:svg="http://www.w3.org/2000/svg"
   xmlns="http://www.w3.org/2000/svg"
   xmlns:sodipodi="http://sodipodi.sourceforge.net/DTD/sodipodi-0.dtd"
   xmlns:inkscape="http://www.inkscape.org/namespaces/inkscape"
   viewBox="0 0 16 16"
   id="svg2"
   version="1.1"
   inkscape:version="0.91 r13725"
   sodipodi:docname="edit-copy-symbolic.svg">
  <metadata
     id="metadata10">
    <rdf:RDF>
      <cc:Work
         rdf:about="">
        <dc:format>image/svg+xml</dc:format>
        <dc:type
           rdf:resource="http://purl.org/dc/dcmitype/StillImage" />
      </cc:Work>
    </rdf:RDF>
  </metadata>
  <sodipodi:namedview
     pagecolor="#ffffff"
     bordercolor="#666666"
     borderopacity="1"
     objecttolerance="10"
     gridtolerance="10"
     guidetolerance="10"
     inkscape:pageopacity="0"
     inkscape:pageshadow="2"
     inkscape:window-width="640"
     inkscape:window-height="480"
     id="namedview8"
     showgrid="false"
     inkscape:zoom="39.8125"
     inkscape:cx="2.0722135"
     inkscape:cy="8"
     inkscape:current-layer="svg2" />
  <defs
     id="defs3051">
    <style
       type="text/css"
       id="current-color-scheme">
      .ColorScheme-Text {
        color:#bebebe;
      }
      </style>
  </defs>
  <path
     style="color:#bebebe;fill:currentColor;fill-opacity:1;stroke:none"
     class="ColorScheme-Text"
     d="m 10.999994,4.2500013 -8.2499902,0 C 2.3360002,4.2500013 2,4.5860015 2,4.9999949 L 2,13.249996 C 2,13.664 2.3360002,14 2.7500038,14 l 8.2499902,0 c 0.414004,0 0.750004,-0.336 0.750004,-0.750004 l 0,-8.2500011 c 0,-0.4139934 -0.336,-0.7499936 -0.750004,-0.7499936 z M 13.249996,2 5.7499987,2 C 5.3359951,2 4.9999949,2.3360002 4.9999949,2.7500038 l 0,0.7499936 0.7500038,0 0,-0.3750018 c 0,-0.2069968 0.1680052,-0.3749918 0.3750019,-0.3749918 l 6.7499934,0 c 0.207008,0 0.375002,0.167995 0.375002,0.3749918 l 0,6.7500034 c 0,0.206997 -0.167994,0.375003 -0.375002,0.375003 l -0.374991,0 0,0.749992 0.749993,0 C 13.664,10.999994 14,10.663994 14,10.250002 L 14,2.7500038 C 14,2.3360002 13.664,2 13.249996,2 Z"
     id="path6"
     inkscape:connector-curvature="0" />
</svg>

<svg xmlns="http://www.w3.org/2000/svg" viewBox="0 0 16 16">
  <path fill="#bebebe" d="M11 4.25H2.75A.75.75 0 0 0 2 5v8.25c0 .414.336.75.75.75H11a.75.75 0 0 0 .75-.75V5a.75.75 0 0 0-.75-.75zM13.25 2h-7.5a.75.75 0 0 0-.75.75v.75h.75v-.375c0-.207.168-.375.375-.375h6.75c.207 0 .375.168.375.375v6.75a.375.375 0 0 1-.375.375H12.5V11h.75a.75.75 0 0 0 .75-.75v-7.5a.75.75 0 0 0-.75-.75z"/>
</svg>
